X: 20
T:In My Cottage Near a Wood,March. BF12.20
M:2/4
L:1/8
Q:150
C:Browne "C" hand
S:MS12,c1835,Browne Coll.,Lakes
R:March
O:England
A:Lakes
Z:vmp.Cherri Graebe.
K:C
E>F GG|AAG2|cd (ef/d/)|cBc2|E>F GG|AAG2|cd (ef/d/)|cBc2||!
|.f.e.d.e|.f.e.d.c|"Is there a bar missing".B.A.G.F|\
E>F GG|AAG2|cd (ef/d/)|cBc2|]
